X:1
T:James Gibb editions Version 4 Edited by W. Chimiak and Maria Rist for Gloria Deo Schola 14 Mar 2019
T:Hans Leo Hassler (1564-1612)
T:Dixit Maria
T:Luke 1:38- Mary said to the Angel: Behold, I am the handmaid of the Lord, let it be done to me, according to your word
%%score [ 1 2 3 4 ]
L:1/8
Q:1/4=120
M:2/2
K:G
V:1 treble nm="Soprano" snm="S."
V:2 treble nm="Alto" snm="A."
V:3 treble-8 nm="Tenore" snm="T."
V:4 bass nm="Basso" snm="B."
V:1
!mf! z8 | z8 | z8 | z8 | G4 G2 G2 | A4 B2 G2 | (B3 A B^c d2- | d2)"_#" ^c2 d2 B2 | (d3 =c B2) A2 | %9
w: ||||Di- xit Ma-|ri- a ad|An\- _ _ _ _|_ ge- lum, ad|An\- _ _ ge-|
 A4 z2 A2 | A2 A2 B4 | A2 B2 (c3 B | AG G4) F2 | G4 z2 G2 | G2 G2 A4 | B2 G2 (B3 A | B^c d4) c2 | %17
w: lum, di-|xit Ma- ri-|a ad An\- _|_ _ _ ge-|lum, di-|xit Ma- ri-|a ad An\- _|_ _ _ ge-|
 d2 B4 (G2- | GF/E/ FG A2) A2 | A2 B2 (BAGF | EF G4) F2 | !fermata!G4!pp! B4- | B4 B4 | A4 A2 ^G2 | %24
w: lum, ad An\-|_ _ _ _ _ _ ge-|lum, ad An\- _ _ _|_ _ _ ge-|lum: Ec\-|_ ce|an- cil- la|
 A6 A2 | A4!mf! d4- | d4 d4 | c4 c2 B2 | B6 B2 | B4 z2 (e2- | edcB A2) d2 | (dcBA G4) | %32
w: Do- mi-|ni, ec\-|* ce|an- cil- la|Do- mi-|ni, fi\-|* * * * * at|mi\- _ _ _ _|
 G4 z2!mf! e2 | e2 d2 c2 B2 | A4 B4 | z8 | z8 | z8 | z2 c2 c2 B2 | A2 G2 F4 | F2 d2 d2 c2 | %41
w: hi se-|cun- dum ver- bum|tu- um,||||se- cun- dum|ver- bum tu-|um, se- cun- dum|
 B2 A4 (G2- | G2 F2) G4 |!pp! B8 | B4 A4 | A2 ^G2 A4- | A2 A2 A4 |!mf! d8 | d4 c4 | c2 B2 B4- | %50
w: ver- bum tu\-|* * um.|Ec-|ce an-|cil- la Do\-|* mi- ni,|ec-|ce an-|cil- la Do\-|
 B2 B2 B4 | z2 (e3 d cB | A2) d2 (dcBA | G4) G4 | z2 e2 e2 d2 | c2 B2 A4 | B4 z4 | z8 | z8 | %59
w: * mi- ni,|fi\- * * *|* at mi\- * * *|* hi|se- cun- dum|ver- bum tu-|um,|||
 z4 z2 c2 | c2 B2 A2 G2 | F4 F2 d2 | d2 c2 B2 A2- | A2!>(! (G4 F2) | G4!>)! z4 | %65
w: se-|cun- dum ver- bum|tu- um, se-|cun- dum ver- bum|* tu\- *|um,|
[Q:1/4=80]"^rit."[Q:1/4=80]"^rit." z2!f! e2 e2 d2 |!mf!!>(! c2 B2 c4 |!pp! B8!>)! |] %68
w: se- cun- dum|ver- bum tu-|um.|
V:2
!mf! z8 | z8 | D4 D2 D2 | E4 F2 D2 | (E3 D EF G2- | G2) F2 G2 E2 | G6 B2 | (A3 G F2) G2- | %8
w: ||Di- xit Ma-|ri- a ad|An\- _ _ _ _|_ ge- lum, di-|xit Ma-|ri\- _ _ a|
 G2 F2 (GF FE/D/ | E2) E2 F2 F2 | E2 F2 (GFDE) | F2 D2 E4 | E2 E2 (D3 C | B,2) E2 G3 F | %14
w: * ad An\- _ _ _ _|_ ge- lum, di-|xit Ma- ri\- * * *|* a ad|An- ge- lum, *|* di- xit *|
 E2 D2 ^C2 D2- | D2 E4 (D=C | D2) B,2 E4 | z2 D2 D4- | D2 D2 E4 | F2 G2 D2 E2 | G2 E2 D3 D | %21
w: * Ma- ri- a|* ad An\- *|* ge- lum,|di- xit|* Ma- ri-|a ad An- ge-|lum, ad An- ge-|
 !fermata!D4!pp! G4- | G4 G4 | F4 E2 D2 | E6 E2 | F4!mf! A4- | A4 B4 | G4 A2 G2 | F6 F2 | %29
w: lum: Ec\-|_ ce|an- cil- la|Do- mi-|ni, ec\-|* ce|an- cil- la|Do- mi-|
 ^G2 (B3 A =GF | E2) E2 (F3 E/F/ | G2) D2 E2 E2 | D4 E2!mf! G2 | G3 D EF (G2- | G2 F2) G2 B2 | %35
w: ni, fi\- _ _ _|_ at mi\- * *|* hi, fi- at|mi- hi se-|cun- dum ver- bum tu\-|_ _ um, se-|
 B2 A2 G2 F2 | E4 F2 B2 | B2 A2 G2 F2 | (E3 F G2 F2 | E4) D2 A2 | A3 G F4- | F2 E2 D4- | D4 D4 | %43
w: cun- dum ver- bum|tu- um, se-|cun- dum ver- bum|tu\- * * *|* um, se-|cun- dum ver\-|* bum tu\-|* um.|
!pp! G8 | G4 F4 | E2 D2 E4- | E2 E2 F4 |!mf! A8 | B4 G4 | A2 G2 F4- | F2 F2 ^G2 B2- | BAGF E2 E2 | %52
w: Ec-|ce an-|cil- la Do\-|* mi- ni,|ec-|ce an-|cil- la Do\-|* mi- ni, fi\-|* * * * * at|
 (F3 E/F/ G2) D2 | E2 E2 D4 | E2 G2 G3 D | EF (G4 F2) | G2 B2 B2 A2 | G2 F2 E4 | F2 B2 B2 A2 | %59
w: mi\- * * * hi,|fi- at mi-|hi se- cun- dum|ver- bum tu\- *|um, se- cun- dum|ver- bum tu-|um, se- cun- dum|
 G2 F2 (E3 F | G2 F2 E4) | D2 A2 A3 G | F6 E2 |!>(! D4 D4!>)! | z2!f! B2 B2 A2 | %65
w: ver- bum tu\- *||um, se- cun- dum|ver- bum|tu- um,|se- cun- dum-|
"^rit." (G3 F E2)!>(! F2 | G8 |!pp! G8!>)! |] %68
w: ver\- * * bum|tu-|um.|
V:3
!mf! G4 G2 G2 | A4 B2 G2 | (B3 A B^c d2- | d2) ^c2 d2 B2 | (c3 B cdeB | c2) d2 G2 c2 | %6
w: Di- xit Ma-|ri- a ad|An\- _ _ _ _|_ ge- lum, ad|An\- _ _ _ _ _|_ ge- lum, di-|
[K:treble-8] d6 g2 | (e4 d4) | d4 d4 | A3 A D2 d2 | ^c2 d2 G4 |[K:treble-8] d2 B2 (AGAB | %12
w: xit Ma-|ri\- _|a ad|An- ge- lum, di-|xit Ma- ri-|a ad An\- _ _ _|
 c3 B A2) A2 | G2 c2 B2 c2 | B4 z4 | z4 z2 G2 | G2 G2 A4 |[K:treble-8] B2 G2 (B3 A | B^c d4) c2 | %19
w: _ _ _ ge-|lum, ad An- ge-|lum,|di-|xit Ma- ri-|a ad An\- _|_ _ _ ge-|
 (d3 =c B2) B2 | (c3 B A2) A2 | !fermata!B4!pp! d4 | d6 d2 | d4 ^c2 (d2- | d2 ^cB c2) c2 | %25
w: lum, * * ad|An\- _ _ ge-|lum: Ec-|ce an-|cil- la Do\-|_ _ _ _ mi-|
 d4!mf! f4 | f4 g4 | e4 e2 (e2- | e2 ^d^c d2) d2 | e4 (e3 d | cB A2) d2 (dc | BAGA BG c2- | %32
w: ni, ec-|ce an-|cil- la Do\-|_ _ _ _ mi-|ni, fi\- _|_ _ _ at mi\- _|_ _ _ _ _ _ _|
 c2 B2) c2!mf! c2 | c2 B2 A2 G2 | d4 G2 d2 | d3 A B^c (d2- | d^c/B/ c2) d2 d2- | d2 A2 B4 | %38
w: * * hi se-|cun- dum ver- bum|tu- um, se-|cun- dum ver- bum tu\-|* * * * um, ver\-|* bum tu-|
 c2 e2 e2 d2 | c2 B2 A4 | D2 F2 B2 c2 | d2 c2 (B3 A/G/ | A4) B4 |!pp! d4 d4- | d2 d2 d4 | %45
w: um, se- cun- dum|ver bum tu-|um, se- cun- dum|ver- bum tu\- * *|* um.|Ec- ce|* an- cil-|
 ^c2 (d4 cB | ^c2) c2 d4 |!mf! f4 f4 | g4 e4 | e2 (e4 ^d^c | ^d2) d2 e4 | (e3 =d cB A2) | %52
w: la Do\- * *|* mi- ni,|ec- ce|an- cil-|la Do\- * *|* mi- ni,|fi\- * * * *|
 d2 (dc BAGA | BG c4 B2) | c2 c2 c2 B2 | A2 G2 d4 | G2 d2 d3 A | B^c (d3 c/B/ c2) | d2 d4 A2 | %59
w: at mi\- * * * * *||hi se- cun- dum|ver- bum tu-|um, se- cun- dum|ver- bum tu\- * * *|um, ver- bum|
 B4 c2 e2 | e2 d2 c2 B2 | A4 D2 F2 | B2 c2 d2 c2 |!>(! (B3 A/G/ A4) | (B3 c d4)!>)! | %65
w: tu- um, se-|cun- dum ver- bum|tu- um, se-|cun- dum ver- bum|tu\- * * *|um, * *|
"^rit." z2!f! g2 g2 f2 |!mf!!>(! e2 d2 e4 |!pp! d8!>)! |] %68
w: se- cun- dum|ver- bum tu-|um.|
V:4
!mf! z8 | z8 | z8 | z8 | z8 | z8 | G,4 G,2 G,2 | A,4 B,2 G,2 | (B,3 A, B,^C D2- | D2) ^C2 D4 | z8 | %11
w: ||||||Di- xit Ma-|ri- a ad|An\- * * * *|* ge- lum,||
 z4 C,4 | C,2 C,2 D,4 | E,2 C,2 (E,3 D, | E,F, G,4) F,2 | G,8 | z8 | z4 G,4 | G,2 B,2 A,4 | %19
w: di-|xit Ma- ri-|a ad An\- _|_ _ _ ge-|lum,||di-|xit Ma- ri-|
 D,2 G,2 (G,F,E,D, | C,4) D,4 | !fermata!G,4!pp! G,4- | G,4 G,4 | D,4 A,2 B,2 | A,6 A,2 | %25
w: a ad An\- _ _ _|_ ge-|lum: Ec\-|_ ce|an- cil- la|Do- mi-|
 D,4!mf! D4- | D4 G,4 | C4 A,2 E,2 | B,6 B,2 | E,4 z4 | z8 | (G,3 F, E,2) C,2 | G,4 C,4 | z8 | %34
w: ni, ec\-|* ce|an- cil- la|Do- mi-|ni,||fi\- * * at|mi- hi||
 z4 z2!mf! G,2 | G,2 F,2 E,2 D,2 | A,4 D,2 G,2 | G,2 F,2 E,2 D,2 | C,8 | C,4 D,4 | D,4 D,4 | %41
w: se-|cun- dum ver- bum|tu- um, se-|cun- dum ver- bum|tu-|um, se-|cun- dum|
 D,4 D,4 | D,4 G,4 |!pp! G,8 | G,4 D,4 | A,2 B,2 A,4- | A,2 A,2 D,4 |!mf! D8 | G,4 C4 | %49
w: ver- bum|tu- um.|Ec-|ce an-|cil- la Do\-|* mi- ni,|ec-|ce an-|
 A,2 E,2 B,4- | B,2 B,2 E,4 | z8 | z4 (G,3 F, | E,2) C,2 G,4 | C,4 z4 | z8 | z2 G,2 G,2 F,2 | %57
w: cil- la Do\-|* mi- ni,||fi\- *|* at mi-|hi||se- cun- dum|
 E,2 D,2 A,4 | D,2 G,2 G,2 F,2 | E,2 D,2 C,4- | C,4 C,4 | D,4 D,4 | D,4 D,4 | D,4!>(! D,4 | %64
w: ver- bum tu-|um, se- cun- dum|ver- bum tu\-|* um,|se- cun-|dum ver-|bum tu-|
 G,2!>)!!f! G,2 G,2 F,2 |"^rit." (E,3 D,!mf!!>(! C,4- | C,2) G,2 C,4 |!pp! G,8!>)! |] %68
w: um, se- cun- dum|ver\- * *|* bum tu-|um.|

